resources/svg/home-8-line.svg

<svg fill="currentColor" viewBox="0 0 24 24" xmlns="http://www.w3.org/2000/svg"><path d="M19 21.0001H5C4.44772 21.0001 4 20.5524 4 20.0001V11.0001L1 11.0001L11.3273 1.61162C11.7087 1.26488 12.2913 1.26488 12.6727 1.61162L23 11.0001L20 11.0001V20.0001C20 20.5524 19.5523 21.0001 19 21.0001ZM6 19.0001H18V9.15757L12 3.70302L6 9.15757V19.0001ZM9 10.0001H15V16.0001H9V10.0001ZM11 12.0001V14.0001H13V12.0001H11Z"/></svg>

<svg xmlns="http://www.w3.org/2000/svg" viewBox="0 0 24 24" fill="currentColor">
    <g>
        <path fill="none" d="M0 0h24v24H0z"/>
        <path d="M19 21H5a1 1 0 0 1-1-1v-9H1l10.327-9.388a1 1 0 0 1 1.346 0L23 11h-3v9a1 1 0 0 1-1 1zM6 19h12V9.157l-6-5.454-6 5.454V19zm3-9h6v6H9v-6zm2 2v2h2v-2h-2z"/>
    </g>
</svg>
